X: 1
T: Patty's
M: 6/8
L: 1/8
R: jig
K: Dmaj
Add dcB|AFB AFD|Bee ede|faf e2c|
dcB AGF|EAG FAd|Bgf ecA|1 d3 d3:|2 d3 d2g|]
faa bag|fef dAF|GBB BAG|FDB, EAc|
dcB AGF|EAG FAd|Bgf ecA|1 d3 d2g:|2 d3 d3|]
